dist/images/ignore/icon-home.svg

<svg width="15" height="12" viewBox="0 0 15 12" xmlns="http://www.w3.org/2000/svg" xmlns:sketch="http://www.bohemiancoding.com/sketch/ns"><title>Shape</title><desc>Created with Sketch.</desc><path d="M5.647 12v-4.235h2.824v4.235h3.529v-5.647h2.118l-7.059-6.353-7.059 6.353h2.118v5.647h3.529z" fill="#2390F7" sketch:type="MSShapeGroup"/></svg>

<svg width="15" height="12" viewBox="0 0 15 12" xmlns="http://www.w3.org/2000/svg"><title>Shape</title><path d="M5.647 12V7.765H8.47V12H12V6.353h2.118L7.058 0 0 6.353h2.118V12h3.53z" fill="#2390F7"/></svg>
